toolkits/global/packages/global-context/img/icons/account.svg

<svg height="24" viewBox="0 0 24 24" width="24" xmlns="http://www.w3.org/2000/svg"><path d="m13.2379028 19.9048051c1.3083556-.2032362 2.5118471-.7235183 3.5294683-1.4798399-.8731327-2.5141501-2.0638925-3.935978-3.7673711-4.3188248v-1.2768461c1.1651924-.4118364 2-1.5230755 2-2.8292943 0-1.65685425-1.3431458-3-3-3s-3 1.34314575-3 3c0 1.3062188.83480763 2.4174579 2 2.8292943v1.2768461c-1.70347856.3828468-2.89423845 1.8046747-3.76737114 4.3188248 1.01762123.7563216 2.22111275 1.2766037 3.52946834 1.4798399.4056381.0629726.8192117.0951949 1.2379028.0951949s.8322647-.0322223 1.2379028-.0951949zm4.3421782-2.1721994c1.4927655-1.4532925 2.419919-3.484675 2.419919-5.7326057 0-4.418278-3.581722-8-8-8s-8 3.581722-8 8c0 2.2479307.92715352 4.2793132 2.41991895 5.7326057.75688473-2.0164459 1.83949951-3.6071894 3.48926591-4.3218837-1.14534283-.7036083-1.90918486-1.9679627-1.90918486-3.410722 0-2.209139 1.790861-4 4-4s4 1.790861 4 4c0 1.4427593-.763842 2.7071137-1.9091849 3.410722 1.6497664.7146943 2.7323812 2.3054378 3.4892659 4.3218837zm-5.580081 3.2673943c-4.97056275 0-9-4.0294373-9-9 0-4.97056275 4.02943725-9 9-9 4.9705627 0 9 4.02943725 9 9 0 4.9705627-4.0294373 9-9 9z" fill="#666" fill-rule="evenodd"/></svg>

<?xml version="1.0" encoding="UTF-8"?>
<svg width="24px" height="24px" viewBox="0 0 24 24" version="1.1" xmlns="http://www.w3.org/2000/svg" xmlns:xlink="http://www.w3.org/1999/xlink">
    <!-- Generator: Sketch 63.1 (92452) - https://sketch.com -->
    <title>icon-icon / account</title>
    <desc>Created with Sketch.</desc>
    <g id="icon-/-account" stroke="none" stroke-width="1" fill="none" fill-rule="evenodd">
        <path d="M13.2379028,19.9048051 C14.5462584,19.7015689 15.7497499,19.1812868 16.7673711,18.4249652 C15.8942384,15.9108151 14.7034786,14.4889872 13,14.1061404 L13,12.8292943 C14.1651924,12.4174579 15,11.3062188 15,10 C15,8.34314575 13.6568542,7 12,7 C10.3431458,7 9,8.34314575 9,10 C9,11.3062188 9.83480763,12.4174579 11,12.8292943 L11,14.1061404 C9.29652144,14.4889872 8.10576155,15.9108151 7.23262886,18.4249652 C8.25025009,19.1812868 9.45374161,19.7015689 10.7620972,19.9048051 C11.1677353,19.9677777 11.5813089,20 12,20 C12.4186911,20 12.8322647,19.9677777 13.2379028,19.9048051 L13.2379028,19.9048051 Z M17.580081,17.7326057 C19.0728465,16.2793132 20,14.2479307 20,12 C20,7.581722 16.418278,4 12,4 C7.581722,4 4,7.581722 4,12 C4,14.2479307 4.92715352,16.2793132 6.41991895,17.7326057 C7.17680368,15.7161598 8.25941846,14.1254163 9.90918486,13.410722 C8.76384203,12.7071137 8,11.4427593 8,10 C8,7.790861 9.790861,6 12,6 C14.209139,6 16,7.790861 16,10 C16,11.4427593 15.236158,12.7071137 14.0908151,13.410722 C15.7405815,14.1254163 16.8231963,15.7161598 17.580081,17.7326057 L17.580081,17.7326057 Z M12,21 C7.02943725,21 3,16.9705627 3,12 C3,7.02943725 7.02943725,3 12,3 C16.9705627,3 21,7.02943725 21,12 C21,16.9705627 16.9705627,21 12,21 Z" id="account" fill="#666666"></path>
    </g>
</svg>
